X: 160391
T: Purcell the Piper
C: BB
M: 4/4
Q: 1/8=350
L: 1/8
R: reel
K: G
A|"G"GEDE GABd|"Em"e2 ef edBd|"G"gfef "C"g3 e|"G"d2 BG "D7"AcBA|
"G"GEDE GABd|"Em"e2 ef edBA|"G"GBdg "D7"fdcA|"G"BG"D"AF "G"G3 :|
d|"G"gfga "D"fd (3d^cd|"C"cBcd "G"BG (3GFG|"Am"EAAB "C"cBce|"D"d2ef "G"gaba|
"G"gfga "D"fd (3d^cd|"C"cBcd "G"BGAG|"Am"EAAB "C"cABG|"D"D2EF "G"G3 :|
